!!!!SEGMENT: pl-wn--mus-iii-67-094-cim_sowinski-wojciech--l-affranchissement-de-la-pologne.krn
!!!cenid: 18xx:3586
!!!COM: Sowiński, Wojciech
!!!COM-rismID: pe30008543
!!!CDT: ~1803-1880/03/05
!!!CNT:
!!!OTL: L'affranchissement de la Pologne
!!!PDT:
!!!AGN:
!!!SMS-siglum: PL-Wn
!!!SMS-shelfmark: Mus.III.67.094 Cim.
!!!SMS-shelfwork: W
!!!SMS-variant:
!!!SMS-altvar:
!!!NIFC-rismSourceID:
!!!NIFC-islandoraID:
!!!URL-pdf-islandora:
!!!URL-scan: https://polona.pl/item/l-affranchissement-de-la-pologne-chant-patriotique-dedie-aux-vengeurs-de-la-patrie,NzAwMTkyNDI/2 @EN{Scan on Polona} @PL{Skany w portalu Polona}
!!!ONB-nifc:
!!!AIN: 1 guitr 2 piano 1 vox
!!!key: C
**kern	**dynam	**kern	**dynam	**kern	**text	**text	**text	**text	**text	**kern	**dynam
*part4	*part4	*part3	*part3	*part2	*part2	*part2	*part2	*part2	*part2	*part1	*part1
*staff4	*	*staff3	*	*staff2	*staff2	*staff2	*staff2	*staff2	*staff2	*staff1	*
*I"PIANO.	*	*I"PIANO.	*	*I"CHANT.	*	*	*	*	*	*I"GUITARE.	*
*I'pf	*	*I'pf	*	*I'V	*	*	*	*	*	*I'guit	*
*ICklav	*	*ICklav	*	*ICvox	*	*	*	*	*	*ICstr	*
*Ipiano	*	*Ipiano	*	*Ivox	*	*	*	*	*	*Iguitr	*
*clefF4	*	*clefG2	*	*clefG2	*	*	*	*	*	*clefG2	*
*C:	*	*C:	*	*C:	*	*	*	*	*	*C:	*
*k[]	*	*k[]	*	*k[]	*	*	*	*	*	*k[]	*
*M4/4	*	*M4/4	*	*M4/4	*	*	*	*	*	*M4/4	*
*met(c)	*	*met(c)	*	*met(c)	*	*	*	*	*	*met(c)	*
=1	=1	=1	=1	=1	=1	=1	=1	=1	=1	=1	=1
*	*	*	*	*	*	*	*	*	*	*^	*
!	!	!LO:TX:a:B:t=Tempo di Marcia	!	!	!	!	!	!	!	!LO:TX:a:B:t=Tempo di Marcia	!	!
4CC/ 4C	.	4e/ 4g 4cc	f	1r	.	.	.	.	.	4e/ 4g 4cc	4c\	f
4C\ 4c	.	8.e/L 8.g 8.cc	.	.	.	.	.	.	.	8.e/L 8.g 8.cc	4c\	.
.	.	16e/Jk 16g 16cc	.	.	.	.	.	.	.	16e/Jk 16g 16cc	.	.
4C\ 4c	.	8.e/L 8.g 8.cc	<	.	.	.	.	.	.	8.e/L 8.g 8.cc	8.c\L	<
.	.	16g/K	.	.	.	.	.	.	.	16g/K	16G\K	.
4GG\ 4G	.	8.a/	.	.	.	.	.	.	.	8.a/	8.A\	.
.	.	16b/Jk	[[	.	.	.	.	.	.	16b/Jk	16B\Jk	.
=2	=2	=2	=2	=2	=2	=2	=2	=2	=2	=2	=2	=2
4CC/ 4C	.	4e/ 4g 4cc	.	1r	.	.	.	.	.	4e/ 4g 4cc	4c\	[
8.C\L 8.c	.	8.e/L 8.g 8.cc	.	.	.	.	.	.	.	8.e/L 8.g 8.cc	8.c\L	.
16C\Jk 16c	.	16e/Jk 16g 16cc	.	.	.	.	.	.	.	16e/Jk 16g 16cc	16c\Jk	.
4C\ 4c	.	8.e/ 8.g 8.cc	.	.	.	.	.	.	.	8.e/L 8.g 8.cc	4c\	<
!	!	!	!	!	!	!	!	!	!	!	!	!LO:DY:a
.	.	16cc\KL	<	.	.	.	.	.	.	16cc^/K	.	.
4BB-X\ 4B-X	.	8.dd^^\	.	.	.	.	.	.	.	8.g/ 8.dd	4B-X\	[[
.	.	16ee\Jk	[[	.	.	.	.	.	.	16ee/Jk	.	.
=3	=3	=3	=3	=3	=3	=3	=3	=3	=3	=3	=3	=3
2AA\ 2A	.	4.f^^\ 4.cc 4.ff	sf	1r	.	.	.	.	.	4.ff^/	2A\ 2a	]
.	.	8ee\	.	.	.	.	.	.	.	8ee/	.	.
4BBn\ 4Bn	.	8.g\L 8.dd	.	.	.	.	.	.	.	8.dd/L	4Bn\ 4g	.
.	.	16dd\K	.	.	.	.	.	.	.	16dd/K	.	.
4GG\ 4G	.	8.f:\ 8.b: 8.ee:	.	.	.	.	.	.	.	8.ee/	4G\ 4f 4g	.
.	.	16dd\Jk	.	.	.	.	.	.	.	16dd/Jk	.	.
=4	=4	=4	=4	=4	=4	=4	=4	=4	=4	=4	=4	=4
4r	.	(((2f\ 2b 2dd	sf >	2r	.	.	.	.	.	(2f^/ 2dd	8r	.
.	.	.	.	.	.	.	.	.	.	.	8G\L	.
4GG/	.	.	]]	.	.	.	.	.	.	.	8B\	.
.	.	.	.	.	.	.	.	.	.	.	8G\J	.
!	!	!	!	!LO:TX:t=P:problem= dodatkowa opcja rytmiczna w zwr. 3	!	!	!	!	!	!	!	!
8CC/ 8C	.	8e/))) 8cc	.	8.r	.	.	.	.	.	8e/) 8cc	8c\	.
8r	.	8r	.	.	.	.	.	.	.	8r	8r	.
!	!	!	!	!LO:TX:t=P:problem= pierwsza zwrotka zapisana u góry nad systemem dla V	!	!	!	!	!	!	!	!
.	.	.	.	16g/	Re-	1. Er-	2. Nach	3. Ponia-	4. Er -	.	.	.
4r	.	4r	.	8.a/	-lè-	-he-	drei-	-tows-	-hab-	4r	4r	.
.	.	.	.	16b/	-ve-	-be	-mal	-ki	-ner	.	.	.
=5	=5	=5	=5	=5	=5	=5	=5	=5	=5	=5	=5	=5
4CC\ 4C	.	4G</ 4c 4e	p	4cc\	-toi,	dich,	zehn	hoch	An-	4g/ 4cc 4ee	4c\	p
8.CC\L 8.C	.	8.G</L 8.c 8.e	.	4cc\	romps	zer-	un-	be-	-blick,	8.g/L 8.cc 8.ee	8.c\L	.
16CC\Jk 16C	.	16G</Jk 16c 16e	.	.	.	.	.	.	.	16g/Jk 16cc 16ee	16c\Jk	.
4CC\ 4C	.	4G</ 4c 4e	.	8.cc\	de	-brich	-würd'-	-rühmt	wo	4g/ 4cc 4ee	4c\	.
.	.	.	.	16dd\	vi-	die	-gen	durch	auf	.	.	.
4GG\	.	4G</ 4B< 4d 4f	.	8.b\	-les	Skla-	Knechts-	hun-	je-	4g/ 4b 4ff	4G\	.
.	.	.	.	16cc\	en-	-ven	-chafts	-dert	-nem	.	.	.
!!LO:LB:g=original	!	!	!	!	!	!	!	!	!	!	!	!
=6	=6	=6	=6	=6	=6	=6	=6	=6	=6	=6	=6	=6
4CC\ 4C	.	4G</ 4c 4e	.	4cc\	-tra-	ket-	jah-	Schlach-	Bo-	4g/ 4cc 4ee	4c\	.
8.CC\L 8.C	.	8.G</L 8.c 8.e	.	4cc\	-ves,	-ten,	-ren,	-ten,	-gen	8.g/L 8.cc 8.ee	8.c\L	.
16CC\Jk 16C	.	16G</Jk 16c 16e	.	.	.	.	.	.	.	16g/Jk 16cc 16ee	16c\Jk	.
4CC\ 4C	.	4G</ 4c 4e	.	8.r	.	.	.	.	.	4g/ 4cc 4ee	4c\	.
.	.	.	.	16cc\	no-	O	eilt	den	des	.	.	.
4BBB-X\ 4BB-X	.	4G</ 4c 4e	.	8.dd\	-ble	ed-	Män-	selbst	Halb-	4g/ 4cc 4ee	4B-X\	.
.	.	.	.	16ee\	Po-	-les	-ner-	der	-gotts	.	.	.
=7	=7	=7	=7	=7	=7	=7	=7	=7	=7	=7	=7	=7
2AAA\ 2AA	.	4.F</ 4.c 4.f	f	4.ff\	-logne,	Po-	-blü-	gröſ-	Schaar	4.ff/	2A\ 2cc	f
.	.	8e/	.	8ee\	ô	-len,	-the	-ste	er-	8ee/	.	.
4BBBn\ 4BBn	.	4G</ 4d	.	8.dd\	ter-	du	an	Held	-lag,	4dd/	4Bn\ 4g	.
.	.	.	.	16dd\	-re	He-	der	der	dem	.	.	.
4GGG/ 4GG	.	4B/ 4d 4g	.	8.ee\	de	-ro-	Weich-	Zeit	Tod	4gg/	4G\ 4g 4b	.
.	.	.	.	16dd\	hè-	-en-	-sel	be-	ge-	.	.	.
=8	=8	=8	=8	=8	=8	=8	=8	=8	=8	=8	=8	=8
4CC\ 4C	.	8c/L 8e	p	2cc\	-ros!	-land!	Bord,	-weint,	-weiht,	8cc/L 8ee	4c\	.
.	.	8G/	.	.	.	.	.	.	.	8g/	.	.
4r	.	8c/ 8e	.	.	.	.	.	.	.	8cc/ 8ee	4r	.
.	.	8G/J	.	.	.	.	.	.	.	8g/J	.	.
*	*	*	*	*	*	*	*	*	*	*v	*v	*
*	*	*rep	*	*	*	*	*	*	*	*rep	*
*	*	*	*	*	*	*	*	*	*	*^	*
4CC\ 4C	.	8c/L 8e	.	8r	.	.	.	.	.	8cc/L 8ee	4c\	.
.	.	8G/	.	8g/	la	Die	ze	er-	fuhlt,	8e/	.	.
4r	.	8c/ 8e	.	8.cc\	li-	Frei-	rä-	-hebt	won-	8cc/ 8ee	4r	.
.	.	8G/J	.	.	.	.	.	.	.	8g/J	.	.
.	.	.	.	16ee\	-ber-	-heit	-chen	sich	-nent-	.	.	.
*	*	*	*	*	*	*	*	*	*	*v	*v	*
*	*	*Xrep	*	*	*	*	*	*	*	*Xrep	*
=9	=9	=9	=9	=9	=9	=9	=9	=9	=9	=9	=9
*	*	*	*	*^	*	*	*	*	*	*^	*
4DD/ 4D	.	8r	.	4dd/	4dd\	-tè,	La-	was	aus	-zückt,	8r	4d\	.
*	*	*tremolo	*	*	*	*	*	*	*	*	*	*	*
.	.	8A/L 8c 8d 8f#X	.	.	.	.	.	.	.	.	8a/L 8cc 8ff#X	.	.
4r	.	8A/ 8c 8d 8f#	.	8.dd/	4dd\	qui	-chelt	von	dem	ihr	8a/ 8cc 8ff#	4r	.
.	.	8A/J 8c 8d 8f#	.	.	.	.	.	.	.	.	8a/J 8cc 8ff#	.	.
.	.	.	.	16dd/	.	sou-	.	Schmach	.	.	.	.	.
*	*	*	*	*v	*v	*	*	*	*	*	*	*	*
*	*	*	*	*	*	*	*	*	*	*v	*v	*
*	*	*	*	*	*	*	*	*	*	*rep	*
*	*	*	*	*^	*	*	*	*	*	*^	*
4DD/ 4D	.	8r	.	4dd/	8.dd\	Bra-	.	.	Grab	Stam	8r	4d\	.
.	.	8A/L 8c 8d 8f#	.	.	.	.	.	.	.	.	8a/L 8cc 8ff#	.	.
.	.	.	.	.	16dd\	-ven	.	.	und	sich	.	.	.
4r	.	8A/ 8c 8d 8f#	.	8.ee/	8.ee\	zu,	to	.	heiſst	fort-	8a/ 8cc 8ff#	4r	.
.	.	8A/J 8c 8d 8f#	.	.	.	.	.	.	.	.	8a/J 8cc 8ff#	.	.
.	.	.	.	16ee/	16ee\	die	.	.	euch	-ge-	.	.	.
*	*	*	*	*v	*v	*	*	*	*	*	*	*	*
*	*	*	*	*	*	*	*	*	*	*v	*v	*
*	*	*Xtremolo	*	*	*	*	*	*	*	*Xrep	*
=10	=10	=10	=10	=10	=10	=10	=10	=10	=10	=10	=10
*	*	*	*	*	*	*	*	*	*	*^	*
4GG\ 4G	.	8r	.	4dd\	bra-	ret-	-fa-	trach-	-zo-	8g/L 8b 8gg	4G\	.
.	.	8B/L	.	.	.	.	.	.	.	8g/	.	.
4r	.	8d/ 8g	.	4dd\	-ves,	-ten	-hren,	-ten	-gen,	(<8b/	4r	.
.	.	8B/J	.	.	.	.	.	.	.	8dd/J)	.	.
8GG\ 8G	.	8r	.	8.r	.	.	.	.	.	8r	8G\	.
8r	.	8B/ 8d 8g	.	.	.	.	.	.	.	8g/ 8b 8gg	8r	.
.	.	.	.	16ee\	re-	das	und	nach	zu	.	.	.
8CC#X/ 8C#X	.	8r	.	8.ff#X\	-vient	Theu-	Pra-	Sieg,	schwö-	8r	8c#X\	.
8r	.	8B-X/ 8e 8g	sf	.	.	.	.	.	.	8b-X/ 8gg	8r	.
.	.	.	.	16gg\	t'ai-	-er	-ga's	der	-ren	.	.	.
!!LO:LB:g=original	!	!	!	!	!	!	!	!	!	!	!	!
=11	=11	=11	=11	=11	=11	=11	=11	=11	=11	=11	=11	=11
*	*	*	*	*^	*	*	*	*	*	*	*	*
2DD/ 2D	.	8r	.	4b/	4b\	-der	ste	grau-	ihn,	auf	8r	2d\	.
.	.	8Bn/L	.	.	.	.	.	.	.	.	8a/L	.	.
.	.	8d/ 8g	.	8.b/	4b\	à	aus	-sen	den	des	8cc/ 8ff#X	.	.
.	.	8B/J	.	.	.	.	.	.	.	.	8a/J	.	.
.	.	.	.	16b/	.	cha-	.	.	.	.	.	.	.
8DD/ 8D	.	8r	.	8dd/L	8dd\	-ser	frem-	schau-	Männ-	Ruhms	8r	8d\L	.
8r	.	8B/ 8d 8g	<	8cc/J	8cc\	.	-der	-er-	-li-	On-	8g/L 8b 8gg	8r	.
8DD/ 8D	.	8r	.	8.a\	4ryy	tes	Qua-	-vo-	-chen,	-ster-	8r	8d\J	<
8r	.	8A/ 8c 8d 8f#X	[[	.	.	.	.	.	.	.	8a/J 8cc 8ff#X	8r	.
.	.	.	.	16b\	.	bour-	-ler	-len	un-	-blich-	.	.	.
*	*	*	*	*v	*v	*	*	*	*	*	*	*	*
=12	=12	=12	=12	=12	=12	=12	=12	=12	=12	=12	=12	=12
4GG\ 4G	.	8B/L 8d 8g	f	2g/	-reaux.	Hand.	Mord.	-scheint.	-keit.	8g/L 8b 8gg	8G\L	[ f
.	.	8g/	.	.	.	.	.	.	.	16gg/L	16g\L	.
.	.	.	.	.	.	.	.	.	.	16gg/JJ	16g\JJ	.
4GG\ 4G	.	8g/	.	.	.	.	.	.	.	8gg/L	8g\L	.
.	.	8g/J	.	.	.	.	.	.	.	8gg/J	8g\J	.
*	*	*tremolo	*	*	*	*	*	*	*	*	*	*
4GG\ 4G	.	8g/L	.	8r	.	.	.	.	.	8gg/L	8g\L	.
.	.	8g/	.	8g/	en	Ver-	Cos-	Seht,	Das	8gg/	8g\	.
4r	.	8g/	.	8g/	vain	-ge-	-cius-	seht	Schwert	8gg/	8g\	.
.	.	8g/J	.	8g/	le	-bens	-ko	ihr	nur	8gg/J	8g\J	.
*	*	*Xtremolo	*	*	*	*	*	*	*	*	*	*
=13	=13	=13	=13	=13	=13	=13	=13	=13	=13	=13	=13	=13
8GG\ 8G	.	8r	.	4.ee\	czar	ru-	ruft	ü-	hört	8r	8G\L	.
8r	.	8d/ 8fn 8g 8b	p	.	.	.	.	.	.	8g/L 8b 8ff	8r	.
8GG\ 8G	.	8r	.	.	.	.	.	.	.	8r	8G\J	.
8r	.	8d/ 8f 8g 8b	.	8dd\	de	-stet	euch	-ber	die	8g/J 8b 8ff	8r	.
8GG\ 8G	.	8r	.	8cc\	l'â-	Mos-	aus	euch	Schwü-	8r	8G\L	.
8r	.	8f/ 8g 8dd	.	8b\	-pre	-kau's	der	den	-re,	8g/L 8b 8ff	8r	.
8GG\ 8G	.	8r	.	8.a\	Mos-	Macht-	Wol-	Schat-	sich	8r	8G\J	.
8r	.	8f/ 8g 8dd	.	.	.	.	.	.	.	8g/J 8b 8ff	8r	.
.	.	.	.	16b\	-co-	-ge-	-ken	-ten	zu	.	.	.
=14	=14	=14	=14	=14	=14	=14	=14	=14	=14	=14	=14	=14
8CC/ 8C	.	8r	.	4cc\	-vi-	-bie-	Schooſ-	schwe-	schla-	8r	8c\L	.
8r	.	8e/ 8g 8cc	.	.	.	.	.	.	.	8g/L 8cc 8ee	8r	.
8CC/ 8C	.	8r	.	4g/	-e	-ter,	-se:	-ben,	-gen,	8r	8c\J	.
8r	.	8e/ 8g 8cc	.	.	.	.	.	.	.	8g/J 8cc 8ee	8r	.
8EE/ 8E	.	8r	.	8r	.	.	.	.	.	8r	4e\	.
8r	.	8c/ 8g	.	8g/	pour	dich	vor-	Er	zu	8cc/L 8gg	.	.
8EE/ 8E	.	(>8c/L 8g	<	8.g/	t'é-	zu	-an!	zeich-	tref-	8cc/ 8gg	4e\	.
8r	.	8g#X/J)	[[	.	.	.	.	.	.	8gg#X/J	.	.
.	.	.	.	16g#X/	-cra-	zer-	er-	-net	-fen	.	.	.
!!LO:LB:g=original	!	!	!	!	!	!	!	!	!	!	!	!
=15	=15	=15	=15	=15	=15	=15	=15	=15	=15	=15	=15	=15
*tremolo	*	*	*	*	*	*	*	*	*	*	*	*
8FF\L	.	4.c/ 4.d 4.a	.	4.a/	-ser	-trum-	-mü-	euch	ed-	4.cc/ 4.aa	2f\	.
8F\	.	.	.	.	.	.	.	.	.	.	.	.
8FF\	.	.	.	.	.	.	.	.	.	.	.	.
8F\J	.	8a/	.	8a/	ar-	-mern	-det	den	-len	8cc/ 8aa	.	.
8FF#X\L	.	8c/L 8g#X	<	8g#X/	-me-	sei-	ist	Pfad	Grims,	4.dd/ 4.aa	2f#X\	.
8F#X\	.	8a/J	.	8a/	-ses	-ne	des	des	die	.	.	.
.	.	[32qqd/LLL	.	.	.	.	.	.	.	.	.	.
.	.	[<32qqa/JJJ	.	.	.	.	.	.	.	.	.	.
8FF#\	.	8d^^\L] 8a] 8ee	.	8.ee\	ba-	Ba-	Schick-	Ruh-	Ty-	.	.	.
8F#\J	.	8dd\J	[[	.	.	.	.	.	.	8dd/ 8aa	.	.
.	.	.	.	16dd\	-tail	-tail-	-sals	-mes	-ran-	.	.	.
*Xtremolo	*	*	*	*	*	*	*	*	*	*	*	*
=16	=16	=16	=16	=16	=16	=16	=16	=16	=16	=16	=16	=16
4GG\ 4G	.	8b/L 8dd	f	2dd\	lons:	-lons,	Wuth;	vor,	-nei:	8b/L 8dd 8gg	4g\	f
.	.	16g/L	.	.	.	.	.	.	.	16gg/L	.	.
.	.	16g/JJ	.	.	.	.	.	.	.	16gg/JJ	.	.
4r	.	8g/L	<	.	.	.	.	.	.	8gg/L	4g\	<
.	.	16g/L	.	.	.	.	.	.	.	16gg/L	.	.
.	.	16g/JJ	.	.	.	.	.	.	.	16gg/JJ	.	.
2r	.	8g/L	.	8r	.	.	.	.	.	8gg/L	4g\	.
.	.	16g/L	.	8g/	l'en-	Dein	er-	und	der	16gg/L	.	.
.	.	16g/JJ	.	.	.	.	.	.	.	16gg/JJ	.	.
.	.	8g/L	.	8.g/	-thou-	Feu-	-neut	ruft:	weiſ-	8gg/L	4g\	.
.	.	16g/L	.	.	.	.	.	.	.	16gg/L	.	.
.	.	16g/JJ	[[	16g/	-si-	-er-	dem	"Was	-se	16gg/JJ	.	.
=17	=17	=17	=17	=17	=17	=17	=17	=17	=17	=17	=17	=17
*^	*	*	*	*^	*	*	*	*	*	*	*	*
!LO:N:vis=2	!	!	!	!	!	!	!	!	!	!	!	!	!	!
4CC/	2CC\	.	4.e/ 4.g 4.ee	f	4.ee\	2ryy	-asme,	-ei-	Va-	wolt	Aar	4.ee/	2c^\ 2g	[ f
4C\	.	.	.	.	.	.	.	.	.	.	.	.	.	.
.	.	.	8dd\	.	8dd\	.	aux	-fer	-ter-	ihr	darfs	8dd/	.	.
!LO:N:vis=2	!	!	!	!	!	!	!	!	!	!	!	!	!	!
4EE/	2EE\	.	4.c/ 4.g 4.cc	sf	(4.cc/	8.cc\	griff	.	-land	vor	mit	4.cc/	2e^\ 2g	.
.	.	.	.	.	.	16cc\	zum	die	der	dem	.	.	.	.
4E\	.	.	.	.	.	8cc\	Ei-	Ruhm-	Zahl	Schwar-	.	.	.	.
.	.	.	8b\	.	8b/)	8b\	-sen	-es-	er-	-zen	.	8b/	.	.
=18	=18	=18	=18	=18	=18	=18	=18	=18	=18	=18	=18	=18	=18	=18
*	*	*	*^	*	*	*	*	*	*	*	*	*	*	*
!LO:N:vis=2	!	!	!	!	!	!	!	!	!	!	!	!	!	!	!
4FF/	2FF\	.	8a:/L	2A:\ 2c:	.	(8a/L	8a\L	de	wie-	loo-	be-	wa-	8r	2f\	.
.	.	.	8g/	.	.	8g/J)	8g\	.	.	.	.	.	8a/L 8cc	.	>
4F\	.	.	8f/	.	.	8f/	8f\	Var-	.	.	.	.	8a/ 8cc	.	.
!	!	!LO:HP:a:t=dim.	!	!	!	!	!	!	!	!	!	!	!	!	!
.	.	>	8e/J	.	.	8e/	8e\J	-so-	.	.	.	.	8a/J 8cc	.	.
8FF/L	2ryy	.	4A/ 4d	4ryy	.	(4d/	2ryy	-vi-	-der,	-se,	-ben?	-gen,	8r	2F\	]
8AA/	.	.	.	.	.	.	.	.	.	.	.	.	8a/L 8dd 8ff	.	.
!	!	!	!	!	!LO:HP:a:t=dim.	!	!	!	!	!	!	!	!	!	!
8D/	.	.	4f\ 4a 4dd	4ryy	>	8ff\L	.	.	vor	und	Ihr	Sieg	8a/ 8dd 8ff	.	.
8F/J	.	.	.	.	.	8dd\J)	.	-e,	.	.	.	.	8a/J 8dd 8ff	.	.
*v	*v	*	*	*	*	*	*	*	*	*	*	*	*	*	*
*	*	*v	*v	*	*	*	*	*	*	*	*	*	*	*
=19	=19	=19	=19	=19	=19	=19	=19	=19	=19	=19	=19	=19	=19
!	!	!	!	!LO:TX:a:i:t=a tempo	!	!	!	!	!	!	!	!	!
*tremolo	*	*	*	*	*	*	*	*	*	*	*	*	*
8GG\L	.	4e/ 4g 4cc	f	4cc\	4ryy	a	War-	säu-	Freun-	o-	4g/ 4cc 4ee	2G\	f
8G\	.	.	.	.	.	.	.	.	.	.	.	.	.
8GG\	.	8.e/L 8.g 8.cc	.	8.cc/	4cc\	res	-schau,	-bert's	-de,	-der	8.g/L 8.cc 8.ee	.	.
8G\J	.	.	.	.	.	.	.	.	.	.	.	.	.
.	.	16e/Jk 16g 16cc	.	16cc/	.	sai-	.	.	.	.	16g/Jk 16cc 16ee	.	.
*Xtremolo	*	*	*	*	*	*	*	*	*	*	*	*	*
8GG/L	.	2d/ 2f 2g 2b	.	4.b\	2ryy	-si	wie	von	Muth!	Tod!	8r	2G\	.
8BB/	.	.	.	.	.	.	.	.	.	.	8g/L 8b 8ff	.	.
8D/	.	.	.	.	.	.	.	.	.	.	8g/ 8b 8ff	.	.
8G/J	.	.	.	8b\	.	le	die	des	die	ist	8g/J 8b 8ff	.	.
*	*	*	*	*v	*v	*	*	*	*	*	*	*	*
!!LO:PB:g=original	!	!	!	!	!	!	!	!	!	!	!	!
=20	=20	=20	=20	=20	=20	=20	=20	=20	=20	=20	=20	=20
!	!	!	!	!LO:HP:t=cres.	!	!	!	!	!	!	!	!
*tremolo	*	*	*	*	*	*	*	*	*	*	*	*
8GG\L	.	8.d/L 8.f 8.b	<	8.b\	fer	Söh-	Nord-	Waf-	al-	8.r	2G\	.
8G\	.	.	.	.	.	.	.	.	.	.	.	.
.	.	16d/Jk 16f 16b	.	16b\	des	-ne	-land	-fen	-ler	16g/KL 16b 16ff	.	<
8GG\	.	8.d/L 8.f 8.a	.	8.a\	Ja-	Ja-	Skla-	nur	Feld	8.g/ 8.b 8.ff	.	.
8G\J	.	.	.	.	.	.	.	.	.	.	.	.
.	.	16d/Jk 16f 16b	.	16b\	-gel-	-gel-	-ven-	her-	ges-	16g/Jk 16b 16ff	.	.
*Xtremolo	*	*	*	*	*	*	*	*	*	*	*	*
2CC/ 2GG 2C	.	2c^/ 2e 2g 2cc	sf	2cc\	-lons	-lons.	-brut.	-vor!	-chrei.	2g^/ 2cc 2ee	2c\	[ f
=21	=21	=21	=21	=21	=21	=21	=21	=21	=21	=21	=21	=21
8r	.	8r	.	2r	.	.	.	.	.	8r	8r	.
(8GG\L 8G	.	(8g/L	f	.	.	.	.	.	.	8g/L	8G\L	<
8FF#X\) 8F#X	.	8f#X/)	.	.	.	.	.	.	.	8f#X/	8F#X\	.
(8GG\J 8G	.	8g'/J	<	.	.	.	.	.	.	8g/J	8G\J	.
8AA\L 8A	.	8a'\L	.	8r	.	.	.	.	.	8a/L	8A\L	.
8BB\ 8B	.	8b'\	.	8g/	l'en-	Dein	Er-	Und	Der	8b/	8B\	.
8C\ 8c	.	8cc'\	.	8.g/	-thou-	Feu-	-neut	ruft:	weiſ-	8cc/	8c\	.
8D\J) 8d	.	8dd'\J	[[	.	.	.	.	.	.	8dd/J	8d\J	.
.	.	.	.	16g/	-si	-er-	dem	Was	-se	.	.	.
=22	=22	=22	=22	=22	=22	=22	=22	=22	=22	=22	=22	=22
*	*	*	*	*^	*	*	*	*	*	*	*	*
*tremolo	*	*	*	*	*	*	*	*	*	*	*	*	*
8CC/L	.	4.e/ 4.g 4.ee	sf	4.ee/	4.ee\	asme,	-ci-	Va-	wolt	Aar	4.ee^/	2c^\ 2g	[
8C/	.	.	.	.	.	.	.	.	.	.	.	.	.
8CC/	.	.	.	.	.	.	.	.	.	.	.	.	.
8C/J	.	8dd\	.	8dd/	8dd\	aux	-fer	-ter-	ihr	darts	8dd/	.	.
8EE/L	.	4.c/ 4.g 4.cc	sf	(4.cc/	8.cc\	murs	griff	-land	vor	mit	4.cc/	2e^\ 2g	.
8E/	.	.	.	.	.	.	.	.	.	.	.	.	.
.	.	.	.	.	16cc\	zum	die	der	dem	.	.	.	.
8EE/	.	.	.	.	8cc\	Ei-	Ruh-	Zahl	schwar-	.	.	.	.
8E/J	.	8b\	.	8b/)	8b\	-sen	-mes-	er-	-zen	.	8b/	.	.
*Xtremolo	*	*	*	*	*	*	*	*	*	*	*	*	*
=23	=23	=23	=23	=23	=23	=23	=23	=23	=23	=23	=23	=23	=23
*	*	*^	*	*	*	*	*	*	*	*	*	*	*
2FF\ 2F	.	8a:/L	2A:\ 2c:	.	(8a/L	8a\L	de	wie-	loo-	be-	wa-	8r	2f^\	.
.	.	8g/	.	.	8g/J)	8g\	.	.	.	.	.	8a/L 8cc	.	.
.	.	8f/	.	.	8f/	8f\	Var-	.	.	.	.	8a/ 8cc	.	.
.	.	8e/J	.	.	8e/	8e\J	-so-	.	.	.	.	8a/J 8cc	.	.
4FF\ 4F	.	4A\ 4d	4ryy	.	(4d/	2ryy	-vi-	-der,	-se,	ben.	-gen!	8r	2F\	.
.	.	.	.	.	.	.	.	.	.	.	.	8a/L 8dd 8ff	.	<
!	!	!	!	!LO:HP:t=dim.	!	!	!	!	!	!	!	!	!	!
4FF\ 4F	.	4f/ 4a 4dd	4ryy	>	8ff\L	.	-e	vor	und	Ihr	Sieg	8a/ 8dd 8ff	.	.
.	.	.	.	.	16ee\L)	.	.	.	.	.	.	8a/J 8dd 8ff	.	.
.	.	.	.	.	16dd\JJ	.	.	.	.	.	.	.	.	.
*	*	*v	*v	*	*	*	*	*	*	*	*	*	*	*
=24	=24	=24	=24	=24	=24	=24	=24	=24	=24	=24	=24	=24	=24
!	!	!	!	!LO:TX:b:i:t=animato	!	!	!	!	!	!	!	!	!
4GG\ 4G	.	4e/ 4g 4cc	f	4cc/	4ryy	a	War-	säu-	Freun-	o-	4g/ 4cc 4ee	4G\	[
!	!	!LO:TX:b:i:t=animato	!	!	!	!	!	!	!	!	!	!	!
8.GG\L 8.G	.	8.e/L 8.g 8.cc	.	8.cc/	4cc\	res	-schau,	-bert's	-de,	-der	8.g/L 8.cc 8.ee	4G\	.
16GG\Jk 16G	.	16e/Jk 16g 16cc	.	16cc/	.	sai	.	.	.	.	16g/Jk 16cc 16ee	.	.
8GG\L	.	4.d/ 4.f 4.g 4.b	sf	4.b\	2ryy	si	wie	von	Muth!	Tod!	4g/ 4b 4ff	4d\	.
8BB\	.	.	.	.	.	.	.	.	.	.	.	.	.
8D\	.	.	.	.	.	.	.	.	.	.	8.g/L 8.b 8.ff	4G\	.
8G\J	.	8d/ 8f 8g 8b	.	8b\	.	le	die	des	die	ist	.	.	.
.	.	.	.	.	.	.	.	.	.	.	16g/Jk 16b 16ff	.	.
*	*	*	*	*v	*v	*	*	*	*	*	*	*	*
!!LO:LB:g=original	!	!	!	!	!	!	!	!	!	!	!	!
=25	=25	=25	=25	=25	=25	=25	=25	=25	=25	=25	=25	=25
4GG\ 4G	.	8.d/L 8.f 8.b	f	8.b\	fer	Söh-	Nord-	Waf-	al-	8.r	2G\	f
.	.	16d/Jk 16f 16b	.	16b\	de	-ne	-land	-fen	-ler	16g/KL 16b 16ff	.	.
4GG\ 4G	.	8.d/L 8.f 8.a	.	8.a\	Ja-	Ja-	Skla-	nur	Feld-	8.g/ 8.b 8.ff	.	.
.	.	16d/Jk 16f 16b	.	16b\	-gel-	-gel-	-ven-	her-	-ges-	16g/Jk 16b 16ff	.	.
2CC/ 2C	.	2c/ 2e 2g 2cc	.	2cc\	-lons.	-lons.	-brut.	-vor!	-chrei.	2g/ 2cc 2ee	2c\	.
=26	=26	=26	=26	=26	=26	=26	=26	=26	=26	=26	=26	=26
4GG\ 4G	.	8.f\L 8.b 8.dd	f	1r	.	.	.	.	.	8.dd/L	4G\ 4f 4g	f
.	.	16dd\K	.	.	.	.	.	.	.	16dd/K	.	.
4GG:\ 4D: 4B:	.	8.f:\ 8.b: 8.ee:	.	.	.	.	.	.	.	8.ee/	4G\ 4f 4g	.
.	.	16dd\Jk	.	.	.	.	.	.	.	16dd/Jk	.	.
4.C\ 4.c	.	8e\L 8cc	<	.	.	.	.	.	.	8e/L 8g 8cc	4c\	.
.	.	16g\L 16gg	.	.	.	.	.	.	.	16g/L 16gg	.	.
.	.	16g\JJ 16gg	.	.	.	.	.	.	.	16g/JJ 16gg	.	.
.	.	8g\L 8gg	.	.	.	.	.	.	.	8g/L 8gg	4r	.
8c\ 8e	.	8g\J 8gg	[	.	.	.	.	.	.	8cc/J 8ee	.	.
=27	=27	=27	=27	=27	=27	=27	=27	=27	=27	=27	=27	=27
*	*	*tremolo	*	*	*	*	*	*	*	*	*	*
8d'\L 8f	.	8g\L 8gg	.	1r	.	.	.	.	.	8ff/L	8dd\L	.
8c'\ 8e	.	8g\ 8gg	.	.	.	.	.	.	.	8ee/	8cc\	.
8G'\ 8d	.	8g\ 8gg	.	.	.	.	.	.	.	8dd/	8g\	.
8d'\J 8f	.	8g\J 8gg	.	.	.	.	.	.	.	8ff/J	8dd\J	.
*	*	*Xtremolo	*	*	*	*	*	*	*	*	*	*
4c\ 4e	.	4g\ 4gg	.	.	.	.	.	.	.	4ee/	4cc\	.
4EE/ 4E	.	(8cc^\L 8ccc	sf	.	.	.	.	.	.	(<8gg/L	4e\	.
.	.	8e\J) 8ee	.	.	.	.	.	.	.	8ee/J)	.	.
=28	=28	=28	=28	=28	=28	=28	=28	=28	=28	=28	=28	=28
4FF/ 4F	.	4d/ 4dd	sf	1r	.	.	.	.	.	4a/ 4dd	4f^\	.
4F\ 4A 4d	sf	(8.b^\L 8.bb	.	.	.	.	.	.	.	8.a/L 8.dd 8.ff	4F\	.
.	.	16a\Jk) 16aa	.	.	.	.	.	.	.	16a/Jk 16dd 16ff	.	.
8G^<\ 8c 8e	.	8g\L 8gg	.	.	.	.	.	.	.	8g/L 8cc 8ee	8G\	.
8r	.	16c'\L 16cc	<	.	.	.	.	.	.	(<16cc/L	8r	.
.	.	16d'\JJ 16dd	.	.	.	.	.	.	.	16dd/JJ)	.	.
4r	.	16e'\LL 16ee	.	.	.	.	.	.	.	(<16ee/LL	4r	.
.	.	16f'\ 16ff	.	.	.	.	.	.	.	16ff/)	.	.
.	.	16g'\ 16gg	.	.	.	.	.	.	.	16gg/	.	.
.	.	16a'\JJ 16aa	[[	.	.	.	.	.	.	16aa/JJ	.	.
=29	=29	=29	=29	=29	=29	=29	=29	=29	=29	=29	=29	=29
4GG/ 4G	.	8g\L 8gg	.	1r	.	.	.	.	.	8gg/L	4G\ 4g	.
.	.	16dd\L 16ff 16gg 16bb	ff	.	.	.	.	.	.	16f/L 16g 16b	.	.
.	.	16dd\JJ 16ff 16gg 16bb	.	.	.	.	.	.	.	16f/JJ 16g 16b	.	.
4GG/ 4G	.	8dd\L 8ff 8gg 8bb	.	.	.	.	.	.	.	8f/L 8g 8b	4G\	.
.	.	8dd\J 8ff 8gg 8bb	.	.	.	.	.	.	.	8f/J 8g 8b	.	.
4CC/ 4GG 4C	.	4cc\ 4ee 4gg 4ccc	.	.	.	.	.	.	.	4e/ 4g 4cc	4c\	.
4r	.	4r	.	.	.	.	.	.	.	4r	4r	.
*	*	*	*	*	*	*	*	*	*	*v	*v	*
==	==	==	==	==	==	==	==	==	==	==	==
*-	*-	*-	*-	*-	*-	*-	*-	*-	*-	*-	*-
!!!system-decoration: s1,s2{(s3,s4)}
!!!RDF**kern: > = above
!!!RDF**kern: < = below
!!!ENC: Berenika Jozajtis
!!!END: 2022-02-09
!!!ENC: Natalia Wrzos
!!!END: 2022-02-15
